X: 22830
T: Largo Law
R: reel
M: 4/4
K: Dmajor
|:FD (3DDD D2 FA|BAdA BAdA|FD (3DDD D2 AF|CA,EA, CA,EG:|
FADA FADA|FAAc dcdA|1 FADA FADA|GFED CEAG:|2 dcBA GFED|EA, (3A,A,A, EGAG||

